X:1
T:Behold Him Now on Yonder Tree
T:Behold Him Now on Yonder Tree
T:Alexander Lee
T:George Samuel Smith, 1887
T:Public Domain Courtesy of the Cyber Hymnal™
T:Public Domain Courtesy of the Cyber Hymnal™
C:Alexander Lee
Z:Public Domain
Z:Courtesy of the Cyber Hymnal™
%%score ( 1 2 ) ( 3 4 )
L:1/8
Q:1/4=100
M:3/4
K:D
V:1 treble 
V:2 treble 
V:3 bass 
V:4 bass 
V:1
 DD E | F3 F [DA]>[EG] | ([DF]2 [CE])[CE] E[^DF] | [EG]3 ([FA]/[GB]/) [FA][EG] | %4
w: 1.~Be- hold Him|now on yon- der|tree, * The Prince of|Peace, the * heav- enly|
w: 2.~O sin- ner,|see, for you and|me * He free- ly|suf- fers * in our|
w: 3.~O lov- ing|Sav- ior, take my|heart, * No long- er|can I * live from|
 ([EG]2 [DF])D [DF][EG] | [FA]3 [FA] d>c | ([Ac]2 [GB])D D[DE] | F3 G FE x | D3 [DF] [EG][FA] | %9
w: King; * O what can|His trans- gress- ion|be * Such shame- ful|pun- ish- ment to|bring? And lo, a|
w: stead; * And lo, He|dies up- on the|tree; * Be- hold, He|bows His sac- red|head! So pure, yet|
w: Thee! * With all un-|like Thee now I|part; * Thy won- drous|love has con- quered|me. I yield to|
 [GB]3 [CE] [DF][EG] | [FA]3 [B,D] [CE][DF] x | [EG]3 C [B,D][CE] x | [DF]3 D [DF][EG] | A3 A d>c | %14
w: thief hangs on each|side; Who just- ly|suf- fers for his|crime. But why should|Christ be cru- ci-|
w: He has borne our|guilt, By death our|ran- som He has|paid; It was for|us His blood was|
w: Thee my lit- tle|all; Ac- cept me|now, Lord, as Thine|own; I’ll be o-|be- dient to Thy|
 ([Ac]2 [GB])D DE x | F3 G FE x | D3 ||"^Refrain" F[EG] [FA] | B3 z E[DF][EG] x3 | %19
w: fied, * The One so|ho- ly, so di-|vine?|||
w: spilt; * Our ev- ery|sin on Him was|laid.|It was for|me, yes, ev- en|
w: call * And spend my|life for Thee a-|lone.|||
 A3 z D[CE][DF] x3 | G3 (z C)[B,D][CE] | [DF]3 D [DF][EG] | [FA]3 A d>c | ([^Ac]2 B)D DE x | %24
w: |||||
w: me, That Je- sus|died * on Cal-|va- ry; My soul|to cleanse from all|its * guilt, His pre-|
w: |||||
 F3 G F<E x | D3 |] %26
w: ||
w: cious blood my Sav-|ior|
w: ||
V:2
 x D2 | D4 x2 | x6 | x6 | x3 D x2 | x4 A2 | x3 D D x | D4 C2 x | D3 x3 | x6 | x7 | x3 C x3 | %12
 x3 D x2 | F4 A2 | x3 D D2 E | D4 C2 x | D3 || F x2 | (FD E2 E) x5 | EC (D2 D) x5 | D2 (C2 C) x2 | %21
 x3 D x2 | x3 A ^A2 | x3 D D2 E | D4 C2 x | D3 |] %26
V:3
 [D,F,]F, G, | [D,A,]4 [F,A,]>[G,B,] | A,4 B,2 | (B,2 D2) [A,C]2 | A,3 F, [D,A,]2 | [D,D]4 [D,D]2 | %6
 D3 B, B,_B, | A,3 z B,A,G, | [D,F,]3 z [D,D]2 | [G,D]3 [G,A,] [F,A,][E,C] | D3 z A, A,2 | %11
 B,3 z A, A,2 | A,3 F, [D,A,]2 | [D,D]4 [F,D]2 | D3 B, B,_B, x | A,3 z B,A,G, | [D,F,]3 || DC =C | %18
 (B,2 z2) x6 | C2 z2 x6 | B,4 [A,,A,]2 x | A,3 F, [D,A,]2 | (DA, D)F F>E | (E2 D)B, B,_B, x | %24
 A,3 z B,A,<G, | [D,F,]3 |] %26
V:4
 x D,2 | x6 | A,4 G,F, | E,4 x2 | D,4 x2 | x6 | G,4 G,2 | A,2 (A,,2 A,,2) x | x6 | x6 | %10
 D,2 (F,2 E,)D, x | G,2 (G,2 F,)E, x | D,4 x2 | x6 | G,4 G,2 _B, | A,2 (A,,2 A,,2) x | x3 || %17
 x D,2 | G,4 (C4 G,2) | F,4 (B,4 F,2) | (F,2 E,2) x3 | D,4 x2 | D,4 F,2 | G,4 _B, G,2 | %24
 A,2 A,,4 x | x3 |] %26

